X: 1
T:Waiting for the Skating
M:6/8
L:1/8
Q:80
C:P.M. E.D. Neigh
S:March
K:HP
|: {gf}g|
a2{GdG}af3/2a/2f|
{g}e3/2d/2{e}B{g}d3/2B/2{d}A|  !
{g}A3/2d/2{e}B{g}A3/2d/2{G}d|
{g}f3/2e/2{A}e{g}e3/2f/2ga2{GdG}af3/2a/2f|
{g}e3/2d/2{e}B{g}d3/2B/2{d}A|  !
{g}A3/2d/2{e}B{g}f3/2e/2{g}c|
{Gdc}d3{gdG}d2:| |:
A|  !
a3/2f/2{g}e{g}d3/2B/2{d}A|
{g}A3/2d/2{e}B{gde}d2A|
a3/2f/2{g}e{g}A3/2d/2{e}B|  !
{g}f3/2e/2{A}e{g}e2A|1 a3/2f/2{g}e{g}d3/2B/2{d}A|
{g}A3/2d/2{e}B{gde}d2B|
{g}A3/2d/2{e}B{g}f3/2e/2{g}c|  !
{Gdc}d3{gdG}d2:|2
a3/2f/2{g}e{gde}d3/2B/2a|
f3/2a/2f{gef}e3/2d/2{e}B|  !
{g}A3/2d/2{e}B{g}f3/2e/2{g}c|
{Gdc}d3{gdG}d2:| |:
A|  !
{g}f3-f3/2a/2f|
{gef}e3-e3/2g/2e|
{gde}d3/2B/2{d}A{g}A3/2d/2{G}d|  !
{g}f3/2e/2{A}e{g}e3/2d/2e{g}f3-f3/2a/2f|
{g}f3/2a/2f{g}e3/2d/2{e}B|
{g}A3/2d/2{e}B{g}f3/2e/2{g}c|  !
{Gdc}d3{gdG}d2:| |:
A|
{gde}d3/2B/2d{g}d3/2B/2{d}A|
a3/2f/2a{g}a3/2f/2{g}e|  !
{g}A3/2d/2{e}B{g}A3/2d/2{G}d|
{g}f3/2e/2{A}e{g}e2A|1 {gde}d3/2B/2d{g}d3/2B/2{d}A|
a3/2f/2a{g}a3/2f/2{g}e|  !
{g}A3/2d/2{e}B{g}f3/2e/2{g}c|
{Gdc}d3{gdG}d2:|2
{gde}d3/2B/2d{g}d3/2B/2a|  !
f3/2a/2f{g}e3/2d/2{e}B|
{g}A3/2d/2{e}B{g}f3/2e/2{g}c|
{Gdc}d3{gdG}d2:|  !
